src/images/pages/welcome/options.svg

<svg width="48" height="48" viewBox="0 0 48 48" fill="none" xmlns="http://www.w3.org/2000/svg">
<path d="M0 12C0 5.37258 5.37258 0 12 0H36C42.6274 0 48 5.37258 48 12V36C48 42.6274 42.6274 48 36 48H12C5.37258 48 0 42.6274 0 36V12Z" fill="#33658A"/>
<path d="M32.9899 24.1749C32.9033 24.9209 32.2693 25.5 31.5 25.5C30.6716 25.5 30 24.8284 30 24V14.1225L26.5607 17.5607L26.4194 17.6854C25.8309 18.143 24.9801 18.1014 24.4393 17.5607C23.8536 16.9749 23.8536 16.0251 24.4393 15.4393L30.4393 9.43934C30.482 9.39664 30.5273 9.3565 30.5807 9.31456C30.5894 9.30776 30.5982 9.30108 30.6073 9.29447C30.6433 9.26774 30.6806 9.24258 30.7189 9.21899C30.7371 9.20791 30.7554 9.19725 30.7736 9.18731C30.8036 9.17069 30.8342 9.15507 30.8652 9.14051C30.8909 9.12852 30.9168 9.11729 30.9434 9.10666C30.9726 9.09497 31.0023 9.08418 31.0318 9.07461C31.0547 9.06709 31.0778 9.06015 31.1012 9.05358C31.1333 9.04475 31.1659 9.03696 31.1989 9.03036C31.2249 9.02505 31.2511 9.02044 31.2766 9.01653C31.3495 9.00564 31.4241 9 31.5 9C31.5168 9 31.5336 9.00028 31.5499 9.00082C31.5759 9.00168 31.6019 9.00322 31.6287 9.00544C31.6606 9.00815 31.6922 9.01186 31.7227 9.01653C31.7489 9.02044 31.7751 9.02505 31.8012 9.03025C31.8341 9.03696 31.8667 9.04475 31.899 9.05377C31.9222 9.06015 31.9453 9.06709 31.9676 9.07432C31.9977 9.08418 32.0274 9.09497 32.057 9.10684C32.0832 9.1173 32.1091 9.12852 32.1347 9.14048C32.1658 9.15507 32.1964 9.17069 32.2261 9.18701C32.2446 9.19725 32.2629 9.20791 32.281 9.2191C32.3194 9.24258 32.3567 9.26774 32.393 9.2945C32.4515 9.33797 32.5076 9.38625 32.5607 9.43934L38.5607 15.4393L38.6854 15.5807C39.143 16.1691 39.1014 17.0199 38.5607 17.5607L38.4194 17.6854C37.8309 18.143 36.9801 18.1014 36.4393 17.5607L33 14.1225V24L32.9899 24.1749Z" fill="#FFFFF0"/>
<path d="M17.9899 23.8251C17.9033 23.0791 17.2693 22.5 16.5 22.5C15.6716 22.5 15 23.1716 15 24V33.8775L11.5607 30.4393L11.4193 30.3146C10.8309 29.857 9.98007 29.8986 9.43934 30.4393C8.85355 31.0251 8.85355 31.9749 9.43934 32.5607L15.4393 38.5607C15.482 38.6034 15.5273 38.6435 15.5807 38.6854C15.5894 38.6922 15.5982 38.6989 15.6073 38.7055C15.6433 38.7323 15.6806 38.7574 15.7189 38.781C15.7371 38.7921 15.7554 38.8028 15.7736 38.8127C15.8036 38.8293 15.8342 38.8449 15.8652 38.8595C15.8909 38.8715 15.9168 38.8827 15.9434 38.8933C15.9726 38.905 16.0023 38.9158 16.0318 38.9254C16.0547 38.9329 16.0778 38.9399 16.1012 38.9464C16.1333 38.9552 16.1659 38.963 16.1989 38.9696C16.2249 38.9749 16.2511 38.9796 16.2766 38.9835C16.3495 38.9944 16.4241 39 16.5 39C16.5168 39 16.5336 38.9997 16.5499 38.9992C16.5759 38.9983 16.6019 38.9968 16.6287 38.9946C16.6606 38.9918 16.6922 38.9881 16.7227 38.9835C16.7489 38.9796 16.7751 38.9749 16.8012 38.9698C16.8341 38.963 16.8667 38.9552 16.899 38.9462C16.9222 38.9399 16.9453 38.9329 16.9676 38.9257C16.9977 38.9158 17.0274 38.905 17.057 38.8932C17.0832 38.8827 17.1091 38.8715 17.1346 38.8595C17.1658 38.8449 17.1964 38.8293 17.2261 38.813C17.2446 38.8028 17.2629 38.7921 17.281 38.7809C17.3194 38.7574 17.3567 38.7323 17.393 38.7055C17.4515 38.662 17.5076 38.6138 17.5607 38.5607L23.5607 32.5607L23.6854 32.4193C24.143 31.8309 24.1014 30.9801 23.5607 30.4393L23.4193 30.3146C22.8309 29.857 21.9801 29.8986 21.4393 30.4393L18 33.8775V24L17.9899 23.8251Z" fill="#FFFFF0"/>
</svg>

<svg width="48" height="48" fill="none" xmlns="http://www.w3.org/2000/svg"><path d="M0 12C0 5.373 5.373 0 12 0h24c6.627 0 12 5.373 12 12v24c0 6.627-5.373 12-12 12H12C5.373 48 0 42.627 0 36V12z" fill="#33658A"/><path d="M32.99 24.175A1.5 1.5 0 0130 24v-9.877l-3.44 3.438-.14.124a1.5 1.5 0 01-1.98-2.246l6-6a1.55 1.55 0 01.425-.298 1.508 1.508 0 011.192-.034 1.48 1.48 0 01.504.332l6 6 .124.142a1.5 1.5 0 01-.124 1.98l-.142.124a1.5 1.5 0 01-1.98-.124L33 14.123V24l-.01.175zM17.99 23.825A1.5 1.5 0 0015 24v9.877l-3.44-3.438-.14-.124a1.5 1.5 0 00-1.98 2.246l6 6a1.543 1.543 0 00.503.332 1.42 1.42 0 00.334.09 1.51 1.51 0 001.284-.422l6-6 .124-.142a1.5 1.5 0 00-.124-1.98l-.142-.124a1.5 1.5 0 00-1.98.124L18 33.877V24l-.01-.175z" fill="ivory"/></svg>
